client/media/icons/_02_arrowleft1.svg

<?xml version="1.0" encoding="UTF-8" standalone="no"?><!DOCTYPE svg PUBLIC "-//W3C//DTD SVG 1.1//EN" "http://www.w3.org/Graphics/SVG/1.1/DTD/svg11.dtd"><svg width="100%" height="100%" viewBox="0 0 48 48" version="1.1" xmlns="http://www.w3.org/2000/svg" xmlns:xlink="http://www.w3.org/1999/xlink" xml:space="preserve" xmlns:serif="http://www.serif.com/" style="fill-rule:evenodd;clip-rule:evenodd;stroke-linejoin:round;stroke-miterlimit:2;"><path d="M34.891,41.954c0.711,-0.774 1.08,-1.651 1.107,-2.631c0.028,-0.981 -0.341,-1.832 -1.107,-2.554l-13.456,-12.692l13.538,-12.769c0.711,-0.67 1.053,-1.535 1.025,-2.592c-0.027,-1.058 -0.396,-1.922 -1.107,-2.593c-0.821,-0.774 -1.737,-1.148 -2.749,-1.122c-1.012,0.026 -1.9,0.4 -2.666,1.122l-16.327,15.401c-0.383,0.361 -0.67,0.761 -0.862,1.199c-0.191,0.439 -0.287,0.89 -0.287,1.354c0,0.465 0.096,0.916 0.287,1.355c0.192,0.438 0.479,0.838 0.862,1.199l16.245,15.323c0.766,0.722 1.668,1.07 2.707,1.045c1.04,-0.026 1.969,-0.374 2.79,-1.045Z" style="fill-rule:nonzero;"/></svg>

<?xml version="1.0" encoding="UTF-8" standalone="no"?>
<!DOCTYPE svg PUBLIC "-//W3C//DTD SVG 1.1//EN" "http://www.w3.org/Graphics/SVG/1.1/DTD/svg11.dtd">
<svg width="100%" height="100%" viewBox="0 0 40 40" version="1.1" xmlns="http://www.w3.org/2000/svg" xmlns:xlink="http://www.w3.org/1999/xlink" xml:space="preserve" xmlns:serif="http://www.serif.com/" style="fill-rule:evenodd;clip-rule:evenodd;stroke-linejoin:round;stroke-miterlimit:2;">
    <g transform="matrix(1.16704,0,0,1.05262,-8.00871,-5.2628)">
        <path d="M34.891,41.954C35.602,41.18 35.971,40.303 35.998,39.323C36.026,38.342 35.657,37.491 34.891,36.769L21.435,24.077L34.973,11.308C35.684,10.638 36.026,9.773 35.998,8.716C35.971,7.658 35.602,6.794 34.891,6.123C34.07,5.349 33.154,4.975 32.142,5.001C31.13,5.027 30.242,5.401 29.476,6.123L13.149,21.524C12.766,21.885 12.479,22.285 12.287,22.723C12.096,23.162 12,23.613 12,24.077C12,24.542 12.096,24.993 12.287,25.432C12.479,25.87 12.766,26.27 13.149,26.631L29.394,41.954C30.16,42.676 31.062,43.024 32.101,42.999C33.141,42.973 34.07,42.625 34.891,41.954Z" style="fill-rule:nonzero;"/>
    </g>
</svg>
